X:1
T:surechigau kokoro to kokoro
T:Surechigau kokoro to kokoro
T:From the series 'Chuunibyou demo Koi ga Shitai'
T:Akito Matsuda
C:Akito Matsuda
L:1/8
Q:1/4=93
M:3/4
K:Db
V:1 treble nm="Violin" snm="Vln."
V:1
 z2!mf! (dc) d2 | f4 c2 | c6 | B4- B z | z2 (dc) d2 | f4 a2 | c'6 | b4 (bc') | d'2 c'2 b2 | a4 c2 | %10
 (dc) B3 A | B4 (bc') | d'2 c'2 b2 | a3 (e ac') | (b6 | b2) c'2 a2 |!>(! b6- | b6-!>)! |!pp! b6 | %19
 z6 |!mf! z2 (dc) d2 | f4 c2 | dc B2 A2 | F6 | G2 f2 e2 | a4 b2 | f4- fe | f3 f bc' | d'2 c'2 b2 | %29
 f'4 e'2 | c'2 b2 a2 | e'4 d'2 | gf g3 a | =a2 f2 c'2 | b6- | b2 z4 | z6 | z6 | z6 | z6 | %40
 z2 (dc) d2 | f4 c2 |!>(! c6!>)! | B4 z2 | z6 |] %45

